release/img/doc_icon.svg

<svg width="58" height="58" viewBox="0 0 58 58" fill="none" xmlns="http://www.w3.org/2000/svg">
<path fill-rule="evenodd" clip-rule="evenodd" d="M14.3411 52.6439H44.2455L44.2443 52.6426C44.3076 52.5843 44.3708 52.5247 44.4341 52.4664C45.4602 51.9627 46.3634 51.3101 46.7976 50.2084C47.0036 49.6836 47.1971 49.1091 47.1984 48.557C47.2185 40.6007 47.2174 32.6435 47.2163 24.6862C47.216 22.8495 47.2158 21.0128 47.2158 19.1762C47.2158 19.1571 47.2132 19.138 47.2084 19.1023C47.2058 19.0823 47.2024 19.057 47.1984 19.0236H46.7182C45.8365 19.0236 44.9547 19.0232 44.0729 19.0229C42.015 19.0221 39.9569 19.0213 37.8994 19.0248C36.8374 19.0273 35.8287 18.8846 34.9602 18.1948C34.0297 17.4566 33.3498 16.5186 33.3101 15.3399C33.2539 13.6336 33.2654 11.9255 33.277 10.2176C33.2817 9.51263 33.2865 8.80769 33.2865 8.10297V5.09305H32.0706C31.7301 5.09305 31.3896 5.09317 31.0492 5.0933C29.8578 5.09373 28.6668 5.09415 27.4751 5.08933C27.3814 5.08849 27.2883 5.06181 27.195 5.03507C27.1511 5.0225 27.1072 5.00992 27.0632 5H26.9701C26.9215 5.00989 26.8728 5.02255 26.8242 5.03522C26.7202 5.06227 26.6163 5.08933 26.5123 5.08933C25.2372 5.09128 23.9622 5.09112 22.6871 5.09097C20.7165 5.09072 18.7459 5.09048 16.7753 5.09801C16.1552 5.10057 15.5351 5.13003 14.915 5.15949C14.6319 5.17293 14.3488 5.18638 14.0657 5.19727C13.9739 5.22829 13.8808 5.2593 13.7878 5.29032C12.8287 5.65633 12.0942 6.30025 11.5185 7.13647C11.4684 7.2095 11.4387 7.2959 11.409 7.38214C11.3953 7.4219 11.3816 7.46163 11.3659 7.5L11.2952 7.60049C11.2785 7.63213 11.2617 7.66408 11.245 7.69603C11.2282 7.72797 11.2115 7.75992 11.1947 7.79156L11.0781 8.1588C11.0696 8.41926 11.059 8.67983 11.0484 8.94044C11.0248 9.52031 11.0012 10.1004 11.0012 10.6799C10.9987 23.4106 10.9999 36.1402 11.0074 48.8709C11.0074 49.7183 11.4056 50.423 11.8982 51.0843C12.516 51.9143 13.4081 52.3089 14.3411 52.6439ZM31.996 27.4767C31.0991 27.4765 30.2022 27.4764 29.3051 27.4764C28.7731 27.4764 28.241 27.4764 27.7088 27.4765C25.5817 27.4767 23.454 27.4769 21.3262 27.4739C21.0061 27.4739 20.6798 27.4714 20.3659 27.4181C19.8696 27.3337 19.3833 26.7245 19.4155 26.1588C19.4478 25.5806 19.5284 25.1029 20.0793 24.8796C20.4155 24.7431 20.8101 24.6985 21.1786 24.6985C26.5446 24.6873 31.9106 24.6886 37.2766 24.6935C38.3324 24.6935 38.9912 25.4342 38.7704 26.4516C38.6438 27.0322 38.0433 27.4764 37.3771 27.4764C35.5831 27.4772 33.7896 27.4769 31.996 27.4767ZM37.3671 33.0483H29.2952L29.2939 33.0496C28.6293 33.0496 27.9646 33.0497 27.2998 33.0499C25.3052 33.0504 23.3101 33.0508 21.315 33.0471C20.9962 33.0471 20.6724 33.0359 20.3572 32.9863C19.8982 32.9131 19.3771 32.3263 19.4155 31.7208C19.4528 31.1414 19.5409 30.6675 20.088 30.4454C20.4242 30.3089 20.82 30.2704 21.1897 30.2704C26.5557 30.2605 31.9217 30.2605 37.2877 30.2667C38.3423 30.268 38.9937 31.0161 38.7704 32.0347C38.6438 32.6091 38.0371 33.0483 37.3671 33.0483ZM28.8336 38.5285V38.6203C27.937 38.6203 27.0405 38.6204 26.144 38.6206C24.3504 38.6209 22.5569 38.6211 20.7629 38.6203C20.088 38.6203 19.5272 38.1848 19.3721 37.5496C19.2344 36.9851 19.5346 36.2866 20.0855 36.0136C20.3163 35.8995 20.6004 35.8424 20.8609 35.8424C26.181 35.8325 31.5011 35.8225 36.82 35.8523C36.8691 35.8525 36.9188 35.8523 36.9689 35.8521C37.5161 35.8499 38.1117 35.8475 38.5334 36.3771C38.8857 36.8201 38.8436 37.3213 38.6996 37.7667C38.5594 38.1997 38.2133 38.531 37.6699 38.531C35.4611 38.5272 33.2523 38.5277 31.0435 38.5282C30.3069 38.5283 29.5703 38.5285 28.8336 38.5285ZM26.1351 44.1612V44.1947C25.6237 44.1947 25.1124 44.1926 24.601 44.1906C23.3481 44.1855 22.0952 44.1804 20.8423 44.2059C19.9776 44.2233 19.3461 43.5099 19.3535 42.8312C19.3634 41.9789 19.9217 41.4193 20.8299 41.4106C21.5069 41.4045 22.1845 41.4058 22.8619 41.4071C23.1441 41.4076 23.4263 41.4081 23.7083 41.4081C24.3523 41.4081 24.9962 41.4078 25.6401 41.4074C27.4106 41.4065 29.1811 41.4055 30.9515 41.4119C31.3771 41.4131 31.8051 41.4454 32.2269 41.5049C32.8845 41.598 33.2542 42.232 33.1972 43.1166C33.1661 43.6091 32.557 44.1563 32.0036 44.1588C30.5805 44.1633 29.1581 44.1625 27.7354 44.1618C27.2021 44.1615 26.6686 44.1612 26.1351 44.1612Z" fill="#1FAD96"/>
<path d="M36.1761 15.4921L36.2629 15.6695V15.6707C36.3255 15.7339 36.3884 15.7972 36.4513 15.8604C36.5144 15.9237 36.5774 15.987 36.6401 16.0504C36.7178 16.0705 36.7955 16.0962 36.873 16.1218C37.0392 16.1767 37.205 16.2315 37.3708 16.2315C39.5585 16.2397 41.7462 16.2385 43.9339 16.2373C44.7152 16.2369 45.4965 16.2365 46.2778 16.2365C46.2902 16.2079 46.2914 16.1794 46.2803 16.1509C46.2412 16.1153 46.2015 16.0804 46.1617 16.0456C46.0865 15.9797 46.0114 15.9138 45.9416 15.8432C45.3032 15.1956 44.6657 14.5472 44.0282 13.8988C42.9447 12.7968 41.8614 11.695 40.7741 10.5975C39.8761 9.69099 38.9732 8.78931 38.0704 7.88764C37.5288 7.3467 36.9871 6.80576 36.4465 6.26378C36.3758 6.19309 36.3151 6.11305 36.2543 6.03289C36.2265 5.99627 36.1986 5.95962 36.1699 5.92383L36.083 5.99579V15.3059L36.1761 15.4921Z" fill="#1FAD96"/>
</svg>

<svg xmlns="http://www.w3.org/2000/svg" width="58" height="58" fill="none" viewBox="0 0 58 58">
  <path fill="#1FAD96" fill-rule="evenodd" d="M14.341 52.644h29.904v-.001l.19-.177c1.025-.503 1.928-1.156 2.363-2.258.206-.524.4-1.099.4-1.651.02-7.956.02-15.913.018-23.87v-5.51c0-.02-.003-.039-.008-.075l-.01-.078h-.48l-2.645-.001c-2.058 0-4.116-.002-6.174.002-1.062.002-2.07-.14-2.939-.83-.93-.738-1.61-1.676-1.65-2.855-.056-1.706-.045-3.415-.033-5.122.005-.705.01-1.41.01-2.115v-3.01h-2.238c-1.191 0-2.382.001-3.574-.004-.094 0-.187-.027-.28-.054A2.144 2.144 0 0 0 27.063 5h-.093a2.78 2.78 0 0 0-.146.035c-.104.027-.208.054-.312.054-1.275.002-2.55.002-3.825.002-1.97 0-3.941 0-5.912.007-.62.003-1.24.032-1.86.061-.283.014-.566.027-.85.038l-.277.093c-.96.366-1.694 1.01-2.27 1.846-.05.074-.08.16-.109.246-.014.04-.027.08-.043.118l-.07.1-.051.096-.05.096-.117.367c-.008.26-.019.52-.03.781-.023.58-.047 1.16-.047 1.74C11 23.41 11 36.14 11.007 48.87c0 .848.399 1.553.891 2.214.618.83 1.51 1.225 2.443 1.56Zm17.655-25.167h-4.287c-2.127 0-4.255 0-6.383-.003-.32 0-.646-.003-.96-.056-.496-.084-.983-.694-.95-1.26.032-.577.112-1.055.663-1.278.337-.137.731-.181 1.1-.181 5.366-.012 10.732-.01 16.098-.006 1.055 0 1.714.741 1.493 1.759-.126.58-.727 1.024-1.393 1.024h-5.381Zm5.371 5.571h-8.072l-.001.002H27.3c-1.995 0-3.99 0-5.985-.003-.319 0-.643-.011-.958-.06-.459-.074-.98-.66-.941-1.266.037-.58.125-1.053.672-1.276.336-.136.732-.175 1.102-.175 5.366-.01 10.732-.01 16.098-.003 1.054.001 1.706.75 1.482 1.768-.126.574-.733 1.013-1.403 1.013Zm-8.533 5.48v.092h-8.071c-.675 0-1.236-.435-1.39-1.07-.139-.565.162-1.263.712-1.536a1.81 1.81 0 0 1 .776-.172c5.32-.01 10.64-.02 15.959.01h.149c.547-.002 1.143-.005 1.564.525.353.443.31.944.167 1.39-.14.433-.487.764-1.03.764-2.209-.004-4.418-.003-6.627-.003h-2.21Zm-2.699 5.633v.034c-.511 0-1.023-.002-1.534-.004-1.253-.006-2.506-.01-3.759.015-.864.017-1.496-.696-1.488-1.375.01-.852.568-1.412 1.476-1.42.677-.007 1.355-.005 2.032-.004l.846.001h1.932c1.77-.002 3.541-.002 5.311.004.426.001.854.033 1.276.093.658.093 1.027.727.97 1.612-.03.492-.64 1.04-1.193 1.042-1.423.004-2.846.004-4.269.003h-1.6Z" clip-rule="evenodd"/>
  <path fill="#1FAD96" d="m36.176 15.492.087.177v.002a111.937 111.937 0 0 0 .377.38c.078.02.155.045.233.07.166.056.332.11.498.11 2.188.009 4.375.007 6.563.006h2.344a.108.108 0 0 0 .002-.086 7.888 7.888 0 0 0-.118-.105 4.19 4.19 0 0 1-.22-.203c-.639-.647-1.276-1.296-1.914-1.944a1126.28 1126.28 0 0 0-3.254-3.301c-.898-.907-1.8-1.809-2.704-2.71-.541-.541-1.083-1.082-1.623-1.624a2.054 2.054 0 0 1-.193-.231 5.197 5.197 0 0 0-.084-.11l-.087.073v9.31l.093.186Z"/>
</svg>
